icon-svg/small-fan.svg

<svg xmlns="http://www.w3.org/2000/svg" viewBox="0 0 24 24"><path fill="#44739e" d="M12.606 10.361a1.38 1.38 0 0 1-1.382 1.383 1.38 1.38 0 0 1-1.382-1.383 1.38 1.38 0 0 1 1.382-1.382 1.38 1.38 0 0 1 1.382 1.382m-1.37-2.407a2.39 2.39 0 0 1 2.127 1.3 2.54 2.54 0 0 0 1.087-.275 2.666 2.666 0 1 0-2.711-4.592c-1.1.646-1.987 3.52-2.21 4.294a2.4 2.4 0 0 1 1.707-.723Zm.369 4.748a3.74 3.74 0 0 0 .092 1.97 2.666 2.666 0 0 0 4.831-2.257c-.363-.778-1.754-1.57-2.901-2.111a2.41 2.41 0 0 1-2.022 2.398m-.602.013a2.3 2.3 0 0 1-.574-.131 2.39 2.39 0 0 1-1.432-3.062 2.5 2.5 0 0 1 .154-.34 2.5 2.5 0 0 0-.8-.559 2.6 2.6 0 0 0-.907-.16 2.665 2.665 0 0 0-.914 5.17c1.097.398 3.533-.531 4.473-.918m8.317-2.157a.707.707 0 0 0 .718.701c.187 0 .572-.187.572-.763 0-.592-.352-.792-.512-.792a.92.92 0 0 0-.778.854m-7.78 7.445a8.32 8.32 0 0 0 8.114-6.647.83.83 0 0 1-.515-.796 1.06 1.06 0 0 1 .635-.942A8.24 8.24 0 0 0 11.54 2a7.947 7.947 0 0 0-7.874 8.001 7.947 7.947 0 0 0 7.874 8.002m-6.634-5.69a2.8 2.8 0 0 1 1.11-3.593 6.33 6.33 0 0 1 5.922-5.111c3.387 0 6.142 3.122 6.142 6.958s-2.755 6.959-6.142 6.959a6.11 6.11 0 0 1-5.456-3.767 2.78 2.78 0 0 1-1.576-1.446m15.449-.659a.43.43 0 0 0-.095-.257.6.6 0 0 1-.222.047h-.031a8 8 0 0 1-1.022 2.658l-.534 4.201a.956.956 0 0 1-1.1.821l-5.346-.774q-.233.014-.464.014a8.1 8.1 0 0 1-2.751-.479l-1.701-.247c-.481-.079-.479-.532-.47-.939a8.4 8.4 0 0 1-3.1-4.825.4.4 0 0 0-.138-.077v.021l.274 7.233a.553.553 0 0 0 .525.568l3.271.177a20.8 20.8 0 0 1 5.461 1.039l2.462.82a6.8 6.8 0 0 0 2.862.306l.592-.065a2.17 2.17 0 0 0 1.335-.661 1.67 1.67 0 0 0 .456-1.194Z"/></svg>

<?xml version="1.0" encoding="UTF-8"?>
<svg width="24px" fill="#44739e" height="24px" viewBox="0 0 24 24" version="1.1" xmlns="http://www.w3.org/2000/svg" xmlns:xlink="http://www.w3.org/1999/xlink">
            <path d="M 12.616,10.36 A 1.382,1.382 0 0 1 11.234,11.742 1.382,1.382 0 0 1 9.8520002,10.36 1.382,1.382 0 0 1 11.234,8.9779997 1.382,1.382 0 0 1 12.616,10.36 Z m -1.37,-2.407 a 2.39,2.39 0 0 1 2.127,1.3 2.541,2.541 0 0 0 1.086,-0.275 2.666,2.666 0 1 0 -2.71,-4.591 v 0 c -1.1,0.645 -1.987,3.519 -2.21,4.293 a 2.387,2.387 0 0 1 1.707,-0.723 z m 0.369,4.747 a 3.742,3.742 0 0 0 0.092,1.97 2.666,2.666 0 0 0 4.83,-2.257 c -0.363,-0.778 -1.754,-1.569 -2.9,-2.11 A 2.411,2.411 0 0 1 11.615,12.7 Z m -0.602,0.013 A 2.32,2.32 0 0 1 10.439,12.582 2.392,2.392 0 0 1 9.007,9.521 2.475,2.475 0 0 1 9.161,9.181 2.466,2.466 0 0 0 8.361,8.622 2.64,2.64 0 0 0 7.455,8.462 2.665,2.665 0 0 0 6.541,13.631 c 1.097,0.398 3.532,-0.531 4.472,-0.918 z m 8.316,-2.156 a 0.707,0.707 0 0 0 0.718,0.7 c 0.186,0 0.571,-0.187 0.571,-0.762 0,-0.592 -0.352,-0.792 -0.512,-0.792 a 0.921,0.921 0 0 0 -0.777,0.854 z M 11.55,18 A 8.316,8.316 0 0 0 19.663,11.354 0.833,0.833 0 0 1 19.148,10.559 1.064,1.064 0 0 1 19.783,9.617 8.24,8.24 0 0 0 11.55,2 7.946,7.946 0 0 0 3.677,10 7.946,7.946 0 0 0 11.55,18 Z M 4.917,12.311 a 2.8,2.8 0 0 1 1.11,-3.592 6.33,6.33 0 0 1 5.921,-5.11 c 3.386,0 6.141,3.121 6.141,6.957 0,3.836 -2.755,6.957 -6.141,6.957 A 6.108,6.108 0 0 1 6.493,13.757 2.78,2.78 0 0 1 4.917,12.311 Z m 15.446,-0.659 a 0.429,0.429 0 0 0 -0.095,-0.257 0.632,0.632 0 0 1 -0.221,0.047 H 20.016 A 8.043,8.043 0 0 1 18.994,14.1 l -0.534,4.2 a 0.956,0.956 0 0 1 -1.1,0.821 l -5.345,-0.774 c -0.155,0.009 -0.31,0.014 -0.464,0.014 A 8.081,8.081 0 0 1 8.8,17.882 L 7.1,17.635 C 6.619,17.556 6.621,17.104 6.63,16.697 A 8.39,8.39 0 0 1 3.53,11.872 0.386,0.386 0 0 0 3.392,11.795 v 0.021 l 0.274,7.232 v 0 a 0.553,0.553 0 0 0 0.525,0.568 l 3.271,0.177 a 20.821,20.821 0 0 1 5.46,1.039 l 2.461,0.82 a 6.776,6.776 0 0 0 2.862,0.306 l 0.592,-0.065 a 2.173,2.173 0 0 0 1.334,-0.661 1.673,1.673 0 0 0 0.456,-1.194 z"/>

</svg>
